X:22
T:Green Grow the Rashes O
C:arr. Carlo Minasi
M:C
L:1/8
B:Chappell's One Hundred Scotch Melodies
B:Arranged for the Concertina by Carlo Minasi
Q:"Moderato  "1/4=120
Z:Peter Dunk 2012
K:F
!p!F|F>FA>G (A<G) FA|G>Gd>c (d<G) GA|\
(B>A Bd) (cAFA)|(G>BA>G) LF<D D2||
!mf!c2 ([fcA]>e) L(f>[cA]) c2|d2 ([gB]>^f) L(g<d) de|\
([fA]>gf[dB]) ([cA]AF>A)|(G>BA>G) L<D D2 ||

